X: 22667
T: Lakes Of Kincora, The
R: hornpipe
M: 4/4
K: Cmajor
c>d (3cBA G>FE>G|c>Gc>d e>gc'>b|a>gf>e d>ec>d|e>dc>B (3ABA (3GAB|
c>d (3cBA G>FE>G|c>Gc>d e>gc'>b|a>gf>e d>ec>d|e>cc>B c2:|
g>eg>a g>ec>G|c>eg>a (3gc'g c'>b|~a2c'>a g>ec>e|(3faf (3ege d>cA>B|
c>d (3cBA G>FE>G|c>Gc>d e>gc'>b|a>gf>e d>ec>d|e>cc>B c2:|

